img/Icons-colored/Leaf.svg

<svg xmlns="http://www.w3.org/2000/svg" width="751" height="751" fill="none" viewBox="0 0 751 751">
  <g clip-path="url(#a)">
    <mask id="b" width="705" height="624" x="23" y="-23" maskUnits="userSpaceOnUse" style="mask-type:luminance">
      <path fill="#fff" d="M23.026-22.238h704.93v622.433H23.026V-22.238ZM374.72 500.598s47.995 1.278 71.806 4.068c17.563 2.058 52.223 9.323 52.223 9.323s-32.533-12.613-49.425-16.781c-17.416-4.298-53.155-8.391-53.155-8.391l101.733-70.214 91.303-21.15-70.873 10.255 44.762-35.427 42.897-18.646-34.038 4.661 76.003-58.734-68.076 34.495 8.393-34.495s-12.404 36.004-24.246 52.674c-16.615 23.389-43.895 38.999-61.548 52.209-40.449 30.266-114.703 66.659-114.703 66.659l-3.964-99.989c.984-43.068 54.851-102.59 73.147-140.088l-71.434 96.964-1.48-92.524 16.786-11.421 40.1-34.494-56.886 34.494-1.865-46.614 20.516-51.276-23.313 39.156-4.663-62.463-.933 110.942-25.178-39.156 25.178 57.802-3.73 73.651-41.032-57.802-33.571-51.276s34.258 66.526 48.671 92.702c11.029 20.03 24.016 25.328 26.865 46.209 1.356 9.94 0 137.979 0 137.979-83.068-42.416-72.677-43.515-110.289-67.755 0 0-43.023-35.948-53.839-49.157-10.239-12.505-23.314-42.509-23.314-42.509l4.606 28.359-69.884-43.276 82.064 67.125-40.099-1.865 55.02 14.917 38.234 32.63-58.75 5.594 76.469 4.661 90.456 67.125c-19.736 2.819-39.406 1.777-58.75 6.526l-53.155 13.053s35.388-4.273 53.155-5.594c23.892-1.778 71.806-3.136 71.806-3.136Z"/>
    </mask>
    <g mask="url(#b)">
      <path fill="#5F260E" stroke="#5F260E" stroke-linecap="square" stroke-miterlimit="100" stroke-width=".484" d="M459.149 576.567s-15.481-26.715-5.729-37.038c22.062-23.353 133.84-2.812 152.574-1.961 15.426.701 29.733 6.832 31.68 2.411 3.362-7.635-17.573-4.059-38.132-11.655-15.389-5.685-101.986-36.017-93.638-50.748 30.586-53.972 183.714-74.282 183.714-74.282s-49.65-5.503-44.438-20.08c7.554-21.127 48.695-40.227 48.695-40.227s-18.622 10.262-25.279-7.101c-11.814-30.816 35.238-92.431 35.238-92.431s-46.761 44.188-75.415 29.184c-16.31-8.54 9.683-61.212 9.683-61.212S501.539 314.515 481.953 318.802c-28.375 6.211-38.671.377-12.478-50.376 19.818-38.403 28.88-140.304 28.88-140.304s-29.511 36.1-49.46 22.648c-26.048-17.565-21.85-74.99-21.85-74.99s-3.531 18.397-23.74 7.183c-25.678-14.249-27.468-71.461-27.468-71.461s-1.79 55.711-27.468 69.96c-20.209 11.214-21.875-9.047-21.875-9.047s9.014 56.784-17.034 74.349c-19.949 13.452-47.789-24.318-47.789-24.318s.71 106.076 20.528 144.479c26.193 50.753 27.59 56.587-.785 50.376-19.587-4.288-167.842-107.376-167.842-107.376s25.993 52.672 9.683 61.212c-28.654 15.004-75.415-29.183-75.415-29.183s51.055 63.464 35.238 92.431c-4.853 8.888-21.103 1.256-21.103 1.256s54.504 34.129 62.058 55.257c5.212 14.577-47.779 20.079-47.779 20.079s138.93 11.126 169.516 65.098c8.281 14.613-79.424 49.498-93.834 51.228-11.32 1.359-32.819 5.146-32.313 8.99.53 4.026 13.29 4.991 18.907 2.717 16.779-6.794 136.795-25.253 159.724-.982 9.752 10.323 3.458 30.358 3.458 30.358s45.986-44.806 78.301-44.185c30.753.591 79.136 52.366 79.136 52.366Z"/>
    </g>
    <path fill="#5F260E" stroke="#5F260E" stroke-linecap="square" stroke-miterlimit="100" stroke-width=".543" d="M377.915 503c-.004-.012-6.064 3.001-7.061 13.087-3.165 32.02-7.258 66.564 9.662 114.862C392.65 665.589 416.385 732 416.385 732L431 711.603s-23.572-50.221-37.872-91.432C377.106 574 377.915 503 377.915 503Z"/>
  </g>
  <defs>
    <clipPath id="a">
      <path fill="#fff" d="M0 0h751v751H0z"/>
    </clipPath>
  </defs>
</svg>

<svg width="751" height="751" viewBox="0 0 751 751" fill="none" xmlns="http://www.w3.org/2000/svg">
<g clip-path="url(#clip0_249_1481)">
<mask id="mask0_249_1481" style="mask-type:luminance" maskUnits="userSpaceOnUse" x="0" y="0" width="751" height="751">
<path d="M0 0H751V751H0V0Z" fill="white"/>
</mask>
<g mask="url(#mask0_249_1481)">
<mask id="mask1_249_1481" style="mask-type:luminance" maskUnits="userSpaceOnUse" x="23" y="-23" width="705" height="624">
<path d="M23.0259 -22.238H727.956V600.195H23.0259V-22.238ZM374.72 500.598C374.72 500.598 422.715 501.876 446.526 504.666C464.089 506.724 498.749 513.989 498.749 513.989C498.749 513.989 466.216 501.376 449.324 497.208C431.908 492.91 396.169 488.817 396.169 488.817L497.902 418.603L589.205 397.453L518.332 407.708L563.094 372.281L605.991 353.635L571.953 358.296L647.956 299.562L579.88 334.057L588.273 299.562C588.273 299.562 575.869 335.566 564.027 352.237C547.412 375.625 520.132 391.235 502.479 404.445C462.03 434.711 387.776 471.104 387.776 471.104L383.812 371.115C384.796 328.047 438.663 268.525 456.959 231.027L385.525 327.991L384.045 235.467L400.831 224.047L440.931 189.552L384.045 224.047L382.18 177.432L402.696 126.156L379.383 165.312L374.72 102.849L373.787 213.791L348.609 174.635L373.787 232.437L370.057 306.088L329.025 248.286L295.454 197.01C295.454 197.01 329.712 263.536 344.125 289.712C355.154 309.742 368.141 315.04 370.99 335.921C372.346 345.861 370.99 473.901 370.99 473.901C287.922 431.484 298.313 430.385 260.701 406.145C260.701 406.145 217.678 370.197 206.862 356.988C196.623 344.483 183.548 314.479 183.548 314.479L188.154 342.838L118.27 299.562L200.334 366.687L160.235 364.822L215.255 379.739L253.489 412.369L194.739 417.963L271.208 422.624L361.664 489.749C341.928 492.568 322.258 491.526 302.914 496.276L249.759 509.328C249.759 509.328 285.147 505.055 302.914 503.734C326.806 501.957 374.72 500.598 374.72 500.598Z" fill="white"/>
</mask>
<g mask="url(#mask1_249_1481)">
<path d="M459.149 576.567C459.149 576.567 443.668 549.852 453.42 539.529C475.482 516.176 587.26 536.717 605.994 537.568C621.42 538.269 635.727 544.399 637.674 539.979C641.036 532.344 620.101 535.92 599.542 528.324C584.153 522.639 497.556 492.307 505.904 477.576C536.49 423.604 689.618 403.294 689.618 403.294C689.618 403.294 639.968 397.791 645.18 383.214C652.734 362.087 693.875 342.987 693.875 342.987C693.875 342.987 675.253 353.249 668.596 335.886C656.782 305.07 703.834 243.455 703.834 243.455C703.834 243.455 657.073 287.643 628.419 272.639C612.109 264.098 638.102 211.426 638.102 211.426C638.102 211.426 501.539 314.515 481.953 318.802C453.578 325.013 443.282 319.179 469.475 268.426C489.293 230.023 498.355 128.122 498.355 128.122C498.355 128.122 468.844 164.222 448.895 150.77C422.847 133.205 427.045 75.78 427.045 75.78C427.045 75.78 423.514 94.177 403.305 82.963C377.627 68.714 375.837 11.502 375.837 11.502C375.837 11.502 374.047 67.212 348.369 81.462C328.16 92.675 326.494 72.415 326.494 72.415C326.494 72.415 335.508 129.199 309.46 146.764C289.511 160.216 261.671 122.446 261.671 122.446C261.671 122.446 262.381 228.522 282.199 266.925C308.392 317.678 309.789 323.512 281.414 317.301C261.827 313.013 113.572 209.925 113.572 209.925C113.572 209.925 139.565 262.597 123.255 271.137C94.6008 286.141 47.8398 241.954 47.8398 241.954C47.8398 241.954 98.8948 305.418 83.0778 334.385C78.2248 343.272 61.9748 335.641 61.9748 335.641C61.9748 335.641 116.479 369.77 124.033 390.898C129.245 405.475 76.2538 410.977 76.2538 410.977C76.2538 410.977 215.184 422.103 245.77 476.075C254.051 490.688 166.346 525.573 151.936 527.303C140.616 528.661 119.117 532.449 119.623 536.293C120.153 540.319 132.913 541.284 138.53 539.01C155.309 532.216 275.325 513.757 298.254 538.028C308.006 548.351 301.712 568.386 301.712 568.386C301.712 568.386 347.698 523.58 380.013 524.201C410.766 524.792 459.149 576.567 459.149 576.567Z" fill="#F3A26E" stroke="#F3A26E" stroke-width="0.484" stroke-miterlimit="100" stroke-linecap="square"/>
</g>
<path d="M377.915 503C377.911 502.988 371.851 506.001 370.854 516.087C367.689 548.107 363.596 582.651 380.516 630.949C392.65 665.589 416.385 732 416.385 732L431 711.603C431 711.603 407.428 661.382 393.128 620.171C377.106 574 377.915 503 377.915 503Z" fill="#F3A26E" stroke="#F3A26E" stroke-width="0.543" stroke-miterlimit="100" stroke-linecap="square"/>
</g>
</g>
<defs>
<clipPath id="clip0_249_1481">
<rect width="751" height="751" fill="white"/>
</clipPath>
</defs>
</svg>
